symbols/web/visibility_off/materialsymbolsrounded/visibility_off_wght500_48px.svg

<svg xmlns="http://www.w3.org/2000/svg" height="48" width="48"><path d="m31.5 26.9-2.6-2.6q1.25-3.2-1.175-5.3-2.425-2.1-5.125-1l-2.5-2.5q.85-.5 1.85-.75T24 14.5q3.55 0 6.025 2.475Q32.5 19.45 32.5 23q0 1.05-.25 2.1t-.75 1.8Zm6.7 6.7L36 31.4q2.4-1.8 4.175-3.975T42.85 23q-2.55-5.55-7.525-8.775Q30.35 11 24.5 11q-2.1 0-4.25.4t-3.35.9l-2.5-2.6q1.75-.8 4.5-1.4 2.75-.6 5.35-.6 6.75 0 12.525 3.725T45.65 21.5q.15.3.2.7.05.4.05.8t-.05.825q-.05.425-.2.675-1.35 2.75-3.225 5.05T38.2 33.6Zm1.35 10.15-7.1-6.95q-1.75.7-3.95 1.1-2.2.4-4.5.4-6.95 0-12.75-3.725T2.35 24.45q-.15-.3-.2-.675Q2.1 23.4 2.1 23t.075-.825q.075-.425.175-.725 1.05-2.2 2.675-4.3Q6.65 15.05 8.8 13.1L3.65 7.95Q3.2 7.5 3.2 6.875T3.65 5.8q.45-.5 1.125-.5t1.125.5l35.85 35.8q.4.45.4 1.05 0 .6-.4 1.05-.45.55-1.1.55-.65 0-1.1-.5ZM11.05 15.4q-1.8 1.35-3.475 3.5T5.1 23q2.6 5.55 7.7 8.775Q17.9 35 24.4 35q1.6 0 3.15-.2 1.55-.2 2.35-.6L26.7 31q-.5.25-1.275.375-.775.125-1.425.125-3.5 0-6-2.45T15.5 23q0-.7.125-1.425.125-.725.325-1.275Zm15.5 6.95Zm-6.05 3Z"/></svg>

<svg xmlns="http://www.w3.org/2000/svg" height="48" width="48"><path d="M31.5 26.9 28.9 24.3Q30.15 21.1 27.725 19Q25.3 16.9 22.6 18L20.1 15.5Q20.95 15 21.95 14.75Q22.95 14.5 24 14.5Q27.55 14.5 30.025 16.975Q32.5 19.45 32.5 23Q32.5 24.05 32.25 25.1Q32 26.15 31.5 26.9ZM38.2 33.6 36 31.4Q38.4 29.6 40.175 27.425Q41.95 25.25 42.85 23Q40.3 17.45 35.325 14.225Q30.35 11 24.5 11Q22.4 11 20.25 11.4Q18.1 11.8 16.9 12.3L14.4 9.7Q16.15 8.9 18.9 8.3Q21.65 7.7 24.25 7.7Q31 7.7 36.775 11.425Q42.55 15.15 45.65 21.5Q45.8 21.8 45.85 22.2Q45.9 22.6 45.9 23Q45.9 23.4 45.85 23.825Q45.8 24.25 45.65 24.5Q44.3 27.25 42.425 29.55Q40.55 31.85 38.2 33.6ZM39.55 43.75 32.45 36.8Q30.7 37.5 28.5 37.9Q26.3 38.3 24 38.3Q17.05 38.3 11.25 34.575Q5.45 30.85 2.35 24.45Q2.2 24.15 2.15 23.775Q2.1 23.4 2.1 23Q2.1 22.6 2.175 22.175Q2.25 21.75 2.35 21.45Q3.4 19.25 5.025 17.15Q6.65 15.05 8.8 13.1L3.65 7.95Q3.2 7.5 3.2 6.875Q3.2 6.25 3.65 5.8Q4.1 5.3 4.775 5.3Q5.45 5.3 5.9 5.8L41.75 41.6Q42.15 42.05 42.15 42.65Q42.15 43.25 41.75 43.7Q41.3 44.25 40.65 44.25Q40 44.25 39.55 43.75ZM11.05 15.4Q9.25 16.75 7.575 18.9Q5.9 21.05 5.1 23Q7.7 28.55 12.8 31.775Q17.9 35 24.4 35Q26 35 27.55 34.8Q29.1 34.6 29.9 34.2L26.7 31Q26.2 31.25 25.425 31.375Q24.65 31.5 24 31.5Q20.5 31.5 18 29.05Q15.5 26.6 15.5 23Q15.5 22.3 15.625 21.575Q15.75 20.85 15.95 20.3ZM26.55 22.35Q26.55 22.35 26.55 22.35Q26.55 22.35 26.55 22.35Q26.55 22.35 26.55 22.35Q26.55 22.35 26.55 22.35Q26.55 22.35 26.55 22.35Q26.55 22.35 26.55 22.35ZM20.5 25.35Q20.5 25.35 20.5 25.35Q20.5 25.35 20.5 25.35Q20.5 25.35 20.5 25.35Q20.5 25.35 20.5 25.35Q20.5 25.35 20.5 25.35Q20.5 25.35 20.5 25.35Z"/></svg>
